!!!COM:	Tinctoris, Johannes
!!!CDT:	~1435///-1511//
!!!OPR:	Missa L'homme arm&eacute;
!!!ONM:	2
!!!OTL:	Gloria
!!!AGN:	Mass; Gloria
!!!SCT:	Tin1001b
!!!SCA:	Tin1001b
!!!voices:	4
!!!voices-OPR:	4
**kern	**kern	**kern	**kern
*staff4	*staff3	*staff2	*staff1
*Ivox	*Ivox	*Ivox	*Ivox
*I"Bassus	*I"Tenor	*I"Altus	*I"Discantus
*I'B	*I'T	*I'A	*I'D
*>[A,B,C]	*>[A,B,C]	*>[A,B,C]	*>[A,B,C]
*>A	*>A	*>A	*>A
*clefF4	*clefGv2	*clefGv2	*clefG2
*k[b-]	*k[b-]	*k[b-]	*k[b-]
*M3/1	*M3/1	*M3/1	*M3/1
*met(O)	*met(O)	*met(O)	*met(O)
*MM252	*MM252	*MM252	*MM252
!!section: Et in terra pax
!!!OMD: Et in terra pax
!!incipit: 3
=1-	=1-	=1-	=1-
0.r	0.r	1G	1r
.	.	2G/	2r
.	.	2.G/	1g
.	.	8A/L	.
.	.	8B-/J	.
.	.	[2c\	2g/
=2	=2	=2	=2
0.r	0.r	4c\]	2.g/
.	.	2B-\	.
.	.	8A/L	8a/L
.	.	8G/J	8b-/J
.	.	2.A/	2.cc\
.	.	2G/	2b-\
.	.	8F/L	8a/L
.	.	8E/J	8g/J
.	.	2F/	[2a/
=3	=3	=3	=3
0.r	0.r	2c\	4a/]
.	.	.	2g/
.	.	4B-\	.
.	.	8A/L	8f/L
.	.	8G/J	8e/J
.	.	2A/	2f/
.	.	2B-\	2.g/
.	.	1A	.
.	.	.	4f#i/
.	.	.	4f#i/
.	.	.	4e/
=4	=4	=4	=4
0.r	0.r	0.G	1g
.	.	.	2r
.	.	.	2d/
.	.	.	2d/
.	.	.	2d/
=5	=5	=5	=5
0.r	0.r	2r	1G
.	.	2d\	.
.	.	2d\	2r
.	.	2d\	2G/
.	.	1G	2.B-/
.	.	.	4c/
=6	=6	=6	=6
0.r	0.r	2r	0d
.	.	2G/	.
.	.	2.B-\	.
.	.	4c\	.
.	.	2.d\	2.B-/
.	.	8e\L	4A/
.	.	8f\J	.
=7	=7	=7	=7
0.r	0.r	2.g\	2B-/
.	.	.	2.c/
.	.	4f\	.
.	.	4e\	.
.	.	4d\	4B-/
.	.	2.g\	2G/
.	.	.	1A
.	.	8f#i\L	.
.	.	8g\J	.
.	.	4f#i\	.
.	.	4e\	.
=8	=8	=8	=8
2GG/	0.r	1g	0G
2.C/	.	.	.
.	.	2r	.
8BB-/L	.	.	.
8AA/J	.	.	.
2BB-/	.	2d\	.
4.C/	.	4.e\	1r
8D\	.	8f\	.
4E\	.	4e\	.
4F\	.	8d\L	.
.	.	8c\J	.
=9	=9	=9	=9
1G	0.r	2B-\	0.r
.	.	2.d\	.
2F\	.	.	.
.	.	4c\	.
2E\	.	2.c\	.
1D	.	.	.
.	.	8Bni/L	.
.	.	8A/J	.
.	.	2Bni\	.
=10	=10	=10	=10
1C	0G	1c	1r
2r	.	2B-\	1d
1GG	.	1d	.
.	1G	.	[1g
[2C/	.	[2c\	.
=11	=11	=11	=11
4C/]	0c	4c\]	2g/]
8D\L	.	4B-\	.
8E\J	.	.	.
2.F\	.	4A/	2.a/
.	.	4G/	.
.	.	4A/	.
4G\	.	4B-\	4g/
2.A\	.	2c\	2.e/
.	1c	1A	.
4G\	.	.	8f/L
.	.	.	8g/J
4F\	.	.	2a/
8E\L	.	.	.
8F\J	.	.	.
=12	=12	=12	=12
1G	1B-	2G/	2d/
.	.	2.d\	2g/
0D	0A	.	4f/
.	.	4e\	4g/
.	.	2.f\	2.a/
.	.	4e\	4g/
.	.	4d\	4f#i/
.	.	4c\	8e/L
.	.	.	8f#i/J
=13	=13	=13	=13
2E-i\	[0.G	2B-\	1g
2.C/	.	2.e-i\	.
.	.	.	2r
8BB-/L	.	8d\L	.
8AA/J	.	8c\J	.
2BB-/	.	2d\	2d/
2.C/	.	1c	2.e-/
8BB-/L	.	.	8d/L
8AA/J	.	.	8c/J
=14	=14	=14	=14
1GG	0.G]	2r	2B-/
.	.	2d\	2B-/
1C	.	2.e-i\	2.c/
.	.	8d\L	8B-/L
.	.	8c\J	8A/J
1r	.	2B-\	2G/
.	.	2B-\	2d/
=15	=15	=15	=15
2r	0.r	2.c\	4.e/
.	.	.	8f/
2C/	.	.	2.g/
.	.	8B-/L	.
.	.	8A/J	.
2.E-\	.	1G	.
.	.	.	4a/
.	.	.	4g/
8D/L	.	.	8f/L
8C/J	.	.	8e/J
2BB-/	.	2r	2d/
2BB-/	.	2D/	[2f/
=16	=16	=16	=16
2.C/	0.r	4.E/	4f/]
.	.	.	2e/
.	.	8F/	.
.	.	2.G/	.
8BB-/L	.	.	8d/L
8AA/J	.	.	8c/J
2GG/	.	.	4B-/
.	.	4B-\	4G/
2D\	.	4A/	2.A/
.	.	2d\	.
1E-i	.	.	.
.	.	4c\	8G/L
.	.	.	8F/J
.	.	4c\	2G/
.	.	4B-\	.
=17	=17	=17	=17
0.D	1r	2.d\	2A/
.	.	.	2r
.	.	8c\L	.
.	.	8B-\J	.
.	1d	0A	0f
.	1d	.	.
=18	=18	=18	=18
2E-i\	0.G	2r	2.g/
2C/	.	2G/	.
.	.	.	4a/
0GG	.	2.g\	0b-
.	.	8f\L	.
.	.	8e\J	.
.	.	1d	.
=19	=19	=19	=19
1AA	1r	1c	1cc
2GG/	1d	2r	2b-\
2.D\	.	2.F/	2.a/
.	1d	.	.
4E\	.	4G/	4g/
2F\	.	2A/	4f/
.	.	.	4e/
=20	=20	=20	=20
2G\	1d	2B-\	2d/
2D\	.	2A/	2.a/
2.F\	0c	2.A/	.
.	.	.	4b-\
.	.	.	2.cc\
4E\	.	4G/	.
2.C/	.	2c\	.
.	.	.	4b-\
.	.	2e\	[2g/
4BB-/	.	.	.
=21	=21	=21	=21
1GG	1B-	2.d\	4g/]
.	.	.	4f/
.	.	.	2g/
.	.	4c\	.
2.D\	0A	1d	2a/
.	.	.	2.f#i/
4C/	.	.	.
1D	.	1r	.
.	.	.	4g/
.	.	.	4a/
.	.	.	4f#i/
=22	=22	=22	=22
0GG	[0.G	1r	1g
.	.	1.d	1r
2.GG/	.	.	[1d
.	.	[2g\	.
4AA/	.	.	.
=23	=23	=23	=23
2BB-/	0.G]	4g\]	2d/]
.	.	4f\	.
1C	.	4e\	2.g/
.	.	4d\	.
.	.	1e	.
.	.	.	4f/
2.C/	.	.	4e/
.	.	.	4d/
.	.	1c	1e
4D\	.	.	.
4E\	.	.	.
4F\	.	.	.
=24	=24	=24	=24
1G	0.r	1B-	1d
2F\	.	2A/	1f
2D\	.	1d	.
1A	.	.	1e
.	.	2c\	.
=25	=25	=25	=25
2B-\	0.r	2d\	1.d
1G	.	1B-	.
2A\	.	2c\	2.c/
2.F\	.	1A	.
.	.	.	4B-/
.	.	.	4A/
4E\	.	.	4G/
=26	=26	=26	=26
2G\	0.r	2r	1B-
2.d\	.	2.G/	.
.	.	.	2r
4c\	.	4A/	.
4B-\	.	4B-\	2.G/
4A\	.	4c\	.
2B-\	.	2.d\	.
.	.	.	4A/
2G\	.	.	4B-/
.	.	8e\L	4c/
.	.	8f\J	.
=27	=27	=27	=27
2r	0G	2g\	2.d/
1GG	.	2.d\	.
.	.	.	8e/L
.	.	.	8f/J
.	.	.	2g/
.	.	4c\	.
2.GG/	.	4B-\	2.d/
.	.	4A/	.
.	1G	2B-\	.
4AA/	.	.	4c/
4BB-/	.	[2d\	2B-/
4C/	.	.	.
=28	=28	=28	=28
2.D\	1F	4d\]	2.A/
.	.	4c\	.
.	.	2A/	.
4C/	.	.	4B-/
2AA/	2E/	1r	2c/
2BB-/	2D/	.	2d/
1C	1E	2r	2G/
.	.	[2G/	2c/
=29	=29	=29	=29
0GG	2D/	2G/]	4d/
.	.	.	4c/
.	1G	2.d\	4B-/
.	.	.	4A/
.	.	.	1B-
.	.	4c\	.
.	2G/	2d\	.
1G	[1D	1e	1c
=30	=30	=30	=30
0.G	0D]	2c\	2r
.	.	2.g\	2.e/
.	.	4f\	4d/
.	.	2e\	1c
.	1r	1d	.
.	.	.	2Bni/
=31	=31	=31	=31
0C	0.G	2c\	2c/
.	.	2.e\	2.g/
.	.	4d\	4f/
.	.	1c	2e/
1GG	.	.	1d
.	.	2Bni\	.
=32	=32	=32	=32
2r	0.C	4.c\	2.c/
.	.	8d\	.
2G\	.	4e\	.
.	.	4f\	4d/
2E\	.	2g\	4e/
.	.	.	4f/
4C/	.	2e\	1g
2G\	.	.	.
.	.	1c	.
4.c\	.	.	.
.	.	.	[2cc\
8B-\	.	.	.
4A\	.	.	.
=33	=33	=33	=33
1G	0.r	1d	2cc\]
.	.	.	2b-\
2r	.	2c\	4a/
.	.	.	4g/
2G\	.	2B-\	1g
1D	.	2.A/	.
.	.	.	2f/
.	.	4B-\	.
=34	=34	=34	=34
2C/	2.G/	2c\	2e/
2.G\	.	2B-\	1d
.	4A/	.	.
.	2B-\	1G	.
4F\	.	.	.
2E\	2c\	.	1g
1D	1d	1A	.
.	.	.	2f/
=35	=35	=35	=35
2E-i\	2B-\	2G/	1g
2.C/	1e-i	1c	.
.	.	.	2r
4BB-/	.	.	.
1GG	4d\	2B-\	1d
.	4c\	.	.
.	2B-\	1G	.
[2C/	2G/	.	[2e/
=36	=36	=36	=36
2C/]	1G	2c\	2e/]
2BB-/	.	2d\	2.d/
0GG	2r	2.B-\	.
.	.	.	4c/
.	2G/	.	4B-/
.	.	4c\	4A/
.	2G/	1d	1B-
.	2G/	.	.
=37	=37	=37	=37
0.r	1F	1r	2.A/
.	.	.	4B-/
.	2r	1r	2A/
.	2A/	.	2.d/
.	2A/	1e	.
.	.	.	4c#i/
.	2A/	.	4c#i/
.	.	.	4Bni/
=38	=38	=38	=38
0.r	1D	0f	2.d/
.	.	.	8c/L
.	.	.	8B-/J
.	2r	.	2A/
.	1d	.	2B-/
.	.	1f	1A
.	2c\	.	.
=39	=39	=39	=39
0.r	1d	0g	0G
.	2d\	.	.
.	2d\	.	.
.	1B-	1d	1r
=40	=40	=40	=40
0.r	1G	2e\	2g/
.	.	2g\	2g/
.	1r	2f\	4a/
.	.	.	4b-\
.	.	2e\	2.cc\
.	1r	1d	.
.	.	.	4bni\
.	.	.	4bni\
.	.	.	4a/
=41	=41	=41	=41
0.r	0.r	2r	1cc
.	.	2.c\	.
.	.	.	2r
.	.	4B-\	.
.	.	2G/	2.b-\
.	.	2.g\	.
.	.	.	8a/L
.	.	.	8g/J
.	.	.	2b-\
.	.	8f\L	.
.	.	8e\J	.
=42	=42	=42	=42
0.r	0.r	2f\	2.a/
.	.	2.d\	.
.	.	.	8g/L
.	.	.	8f/J
.	.	.	2a/
.	.	8c\L	.
.	.	8d\J	.
.	.	2e-i\	2g/
.	.	2d\	4f/
.	.	.	2d/
.	.	4B-\	.
.	.	4c\	4e/
=43	=43	=43	=43
0.r	0.r	2d\	2.f/
.	.	2r	.
.	.	.	2d/
.	.	2.f\	.
.	.	.	4B-/
.	.	.	2.B-/
.	.	2d\	.
.	.	4B-\	4B-/
.	.	2B-\	4d/
.	.	.	4e/
=44	=44	=44	=44
0.r	0.r	4.d\	2.f/
.	.	8e\	.
.	.	4f\	.
.	.	4d\	4f/
.	.	2e\	4g/
.	.	.	4a/
.	.	2d\	2.b-\
.	.	1c	.
.	.	.	8a/L
.	.	.	8b-/J
.	.	.	4a/
.	.	.	4g/
=45	=45	=45	=45
0.r	0.r	2r	1b-
.	.	2B-\	.
.	.	2G/	2r
.	.	4c\	2.g/
.	.	4d\	.
.	.	4e\	.
.	.	8d\L	8f/L
.	.	8e\J	8g/J
.	.	[2f\	[2a/
=46	=46	=46	=46
0.r	0.r	4f\]	4a/]
.	.	8e\L	8g/L
.	.	8d\J	8f/J
.	.	2c\	2e/
.	.	4.d\	4.d/
.	.	8c\	8e/
.	.	4A/	4f/
.	.	4.G/	2g/
.	.	8A\L	.
.	.	8B-\	4.G/
.	.	8c\J	.
.	.	2d\	.
.	.	.	8A/
.	.	.	4B-/
=47	=47	=47	=47
0.r	0.r	4r	2.cni/
.	.	2e\	.
.	.	4.f\	4.d/
.	.	8e\	8c/
.	.	2g\	4B-/
.	.	.	2A/
.	.	4f\	.
.	.	2g\	4G/
.	.	.	2g/
.	.	4e\	.
.	.	[4f\	[4a/
=48	=48	=48	=48
0.r	0.r	8f\L]	8a/L]
.	.	8e\J	8g/J
.	.	2d\	4f/
.	.	.	2e/
.	.	4c\	.
.	.	2d\	2d/
.	.	4B-\	2.g/
.	.	4.c\	.
.	.	8B-/L	.
.	.	8A/	4f#i/
.	.	8G/J	.
.	.	2A/	4f#i/
.	.	.	4e/
=49	=49	=49	=49
0GG	0G	1G	1g
.	.	1r	2r
.	.	.	2d/
1C	1G	1r	2e/
.	.	.	[2g/
=50	=50	=50	=50
1.C	0c	1r	4g/]
.	.	.	4f/
.	.	.	4e/
.	.	.	4d/
.	.	0g	1e
2.C/	.	.	.
.	1c	.	1e
4D\	.	.	.
4E\	.	.	.
4F\	.	.	.
=51	=51	=51	=51
1G	1B-	1g	0d
0D	2.A/	1f	.
.	4G/	.	.
.	2d\	1f	2r
.	2d\	.	2a/
=52	=52	=52	=52
2r	0G	2g\	1b-
2GG/	.	2.g\	.
1C	.	.	1g
.	.	4f\	.
.	.	2e\	.
2BB-/	2r	1d	2r
[2GG/	[2d\	.	[2g/
=53	=53	=53	=53
4GG/]	2d\]	0.r	4g/]
4AA/	.	.	4f/
2BB-/	2d\	.	2d/
2GG/	2d\	.	2.g/
2.C/	1c	.	.
.	.	.	4f/
.	.	.	2e/
4D\	.	.	.
4E\	2c\	.	2e/
4F\	.	.	.
=54	=54	=54	=54
2.G\	1B-	0.r	2.d/
4F\	.	.	4e/
2D\	2A/	.	2f/
1G	2G/	.	2.e/
.	1A	.	.
.	.	.	4d/
2F\	.	.	[2d/
=55	=55	=55	=55
1E	1G	1r	2d/]
.	.	.	2c/
2D\	1r	1r	2d/
2.G\	.	.	2.B-/
.	1r	1g	.
4F\	.	.	4A/
4E\	.	.	2G/
4D\	.	.	.
=56	=56	=56	=56
1G	1d	1g	1B-
0D	1d	1f	0A
.	1d	1f	.
=57	=57	=57	=57
2E-\	1G	2g\	2r
2.E-i\	.	2.g\	2G/
.	2.G/	.	2B-/
4D\	.	4f\	.
2C/	.	2e\	4.c/
.	4A/	.	.
.	.	.	8B-/
2BB-/	2.B-\	1d	2d/
[2GG/	.	.	[2g/
.	4c\	.	.
=58	=58	=58	=58
2GG/]	1d	1g	4g/]
.	.	.	4f/
2G\	.	.	2.d/
2.D\	1d	1.a	.
.	.	.	4e/
.	.	.	4f/
4E\	.	.	4g/
2F\	2c\	.	2a/
2G\	2B-\	2g\	2d/
=59	=59	=59	=59
2D\	1d	1f	2a/
2BB-/	.	.	2b-\
4C/	2.c\	0e	2g/
4BB-/	.	.	.
4AA/	.	.	2.cc\
4GG/	4B-\	.	.
2.C/	4A/	.	.
.	4G/	.	4b-\
.	2c\	.	4a/
4BB-/	.	.	4g/
=60	=60	=60	=60
1GG	1.B-	0.d	2b-\
.	.	.	1g
0D	.	.	.
.	4A/	.	2f#i/
.	4G/	.	.
.	1A	.	2.f#i/
.	.	.	8e/L
.	.	.	8f#i/J
=61	=61	=61	=61
0.GGl	0.Gl	0.dl	0.gl
!!LO:LB:i:g=z
=62||	=62||	=62||	=62||
*>B	*>B	*>B	*>B
*clefF4	*clefGv2	*clefGv2	*clefG2
*k[b-]	*k[b-]	*k[b-]	*k[b-]
*M2/1	*M2/1	*M2/1	*M2/1
*met(C|)	*met(C|)	*met(C|)	*met(C|)
*MM315	*MM315	*MM315	*MM315
!!section: Qui tollis
!!!OMD: Qui tollis
0r	0G	0r	[0g
=63	=63	=63	=63
0r	2.c\	0r	0g]
.	4d\	.	.
.	1e	.	.
=64	=64	=64	=64
0r	1d	0r	[0f
.	2A/	.	.
.	[2d\	.	.
=65	=65	=65	=65
0r	4d\]	0r	0f]
.	4c\	.	.
.	2B-\	.	.
.	1A	.	.
=66	=66	=66	=66
1r	1G	0r	[0g
[1G	1r	.	.
=67	=67	=67	=67
2G\]	0r	0r	0g]
4A\	.	.	.
4B-\	.	.	.
1c	.	.	.
=68	=68	=68	=68
1B-	0r	0r	0d
[1G	.	.	.
=69	=69	=69	=69
2G\]	0r	0g	0r
1E	.	.	.
2C/	.	.	.
=70	=70	=70	=70
2C/	0r	0g	0r
2.E\	.	.	.
4F\	.	.	.
2G\	.	.	.
=71	=71	=71	=71
2D\	0r	[0f	0r
2.A\	.	.	.
4G\	.	.	.
[2B-\	.	.	.
=72	=72	=72	=72
2B-\]	0r	0f]	0r
4A\	.	.	.
4G\	.	.	.
1A	.	.	.
=73	=73	=73	=73
1G	1d	[0g	0r
2r	[1G	.	.
[2E\	.	.	.
=74	=74	=74	=74
2E\]	2G/]	0g]	0r
2F\	2A/	.	.
[1G	[1B-	.	.
=75	=75	=75	=75
2G\]	2B-\]	0d	0r
2F\	4A/	.	.
.	4G/	.	.
1D	2A/	.	.
.	[2d\	.	.
=76	=76	=76	=76
0E	2d\]	1r	0g
.	2c#i\	.	.
.	2c#i\	1G	.
.	2Bni\	.	.
=77	=77	=77	=77
1.D	0d	2.F/	[0a
.	.	4G/	.
.	.	2A/	.
4C/	.	2B-\	.
4BB-/	.	.	.
=78	=78	=78	=78
2.AA/	1r	2.c\	1a]
4BB-/	.	4d\	.
1C	1c	1e	1g
=79	=79	=79	=79
0D	2A/	1.d	0f
.	1B-	.	.
.	2A/	4e\	.
.	.	4f\	.
=80	=80	=80	=80
1C	1c	4g\	0e
.	.	4f\	.
.	.	4e\	.
.	.	4d\	.
1AA	1r	2.c#i\	.
.	.	4Bni\	.
=81	=81	=81	=81
1BB-	1F	0d	0d
2r	2G/	.	.
[2GG/	[2B-\	.	.
=82	=82	=82	=82
4GG/]	4B-\]	0r	0r
4AA/	4c\	.	.
2BB-/	2d\	.	.
2.C/	2G/	.	.
.	[2c\	.	.
4BB-/	.	.	.
=83	=83	=83	=83
4AA/	4c\]	0r	0r
4GG/	4B-\	.	.
1D	4A/	.	.
.	4G/	.	.
.	2B-\	.	.
2C/	[2A/	.	.
=84	=84	=84	=84
2D\	4A/]	0r	0r
.	4G/	.	.
2BB-/	1G	.	.
1AA	.	.	.
.	2F#i/	.	.
=85	=85	=85	=85
0GG	0G	0d	0g
=86	=86	=86	=86
0r	0r	1e	1g
.	.	1f	2.a/
.	.	.	4b-\
=87	=87	=87	=87
0r	0r	2e\	2cc\
.	.	4d\	1b-
.	.	4c\	.
.	.	1d	.
.	.	.	4a/
.	.	.	4b-\
=88	=88	=88	=88
0r	0r	2r	0cc
.	.	2.c\	.
.	.	4B-\	.
.	.	2A/	.
=89	=89	=89	=89
0r	0r	2.G/	1b-
.	.	4A/	.
.	.	2B-\	2g/
.	.	2c\	[2a/
=90	=90	=90	=90
0r	0r	2.d\	4a/]
.	.	.	4g/
.	.	.	4f/
.	.	4c\	4e/
.	.	4B-\	2d/
.	.	4A/	.
.	.	[2G/	2e/
=91	=91	=91	=91
0r	0r	2G/]	2d/
.	.	2B-\	1g
.	.	1A	.
.	.	.	2f#i/
=92	=92	=92	=92
1r	1d	0G	0g
1G	1d	.	.
=93	=93	=93	=93
1G	0G	0r	0r
1C	.	.	.
=94	=94	=94	=94
2BB-/	1d	0r	0r
2.D\	.	.	.
.	2d\	.	.
4E\	.	.	.
2F\	[2d\	.	.
=95	=95	=95	=95
2G\	2d\]	0r	0r
2G\	2d\	.	.
2.A\	[1c	.	.
4G\	.	.	.
=96	=96	=96	=96
2F\	1c]	0r	0r
2E\	.	.	.
[1G	1B-	.	.
=97	=97	=97	=97
2G\]	0A	0r	0r
4F#i\	.	.	.
4E\	.	.	.
1F#i	.	.	.
=98	=98	=98	=98
1G	0G	1r	0r
1r	.	[1g	.
=99	=99	=99	=99
1G	0r	2g\]	0g
.	.	4f\	.
.	.	4e\	.
4G\	.	2d\	.
4F\	.	.	.
4E\	.	2e\	.
4D\	.	.	.
=100	=100	=100	=100
1.G	[0G	1d	1.g
.	.	1d	.
[2B-\	.	.	4f/
.	.	.	4e/
=101	=101	=101	=101
4B-\]	0G]	1.g	2d/
4A\	.	.	.
1G	.	.	2e/
.	.	.	2d/
2C/	.	[2e\	[2g/
=102	=102	=102	=102
2E\	0G	2e\]	2g/]
2F\	.	4d\	4f/
.	.	4c\	4e/
1G	.	2.B-\	1d
.	.	4A/	.
=103	=103	=103	=103
2A\	[0c	1c	2r
2.A\	.	.	2.c/
.	.	2A/	.
4G\	.	.	4B-/
4F\	.	[2c\	4A/
4E\	.	.	4G/
=104	=104	=104	=104
1F	1c]	4c\]	1A
.	.	4B-\	.
.	.	4A/	.
.	.	4G/	.
1G	[1B-	2B-\	2.G/
.	.	[2G/	.
.	.	.	4A/
=105	=105	=105	=105
1r	1B-]	4G/]	4B-/
.	.	4A/	4c/
.	.	4B-\	2.d/
.	.	4c\	.
1G	1B-	2.d\	.
.	.	.	4e/
.	.	.	4f/
.	.	4e\	4g/
=106	=106	=106	=106
1c	0A	4f\	2.a/
.	.	4g\	.
.	.	2a\	.
.	.	.	4b-\
3c\V	.	2.f\	1cc
3B-\	.	.	.
3c\Z	.	.	.
.	.	4e\	.
=107	=107	=107	=107
0d	0G	1g	1.b-
.	.	1r	.
.	.	.	4a/
.	.	.	4g/
=108	=108	=108	=108
1G	0r	1d	1b-
2.F\	.	2.f\	2a/
.	.	.	[2cc\
4G\	.	4e\	.
=109	=109	=109	=109
2A\	0r	2c\	4cc\]
.	.	.	4b-\
2D\	.	2d\	1a
1G	.	1B-	.
.	.	.	2g/
=110	=110	=110	=110
[0D	[0d	0A	0a
=111	=111	=111	=111
0D]	0d]	1a	1r
.	.	1f	1a
=112	=112	=112	=112
0r	0G	2g\	2.b-\
.	.	2d\	.
.	.	.	4cc\
.	.	2g\	2b-\
.	.	4f\	4a/
.	.	4g\	4g/
=113	=113	=113	=113
2r	0d	1a	2.f/
2.D\	.	.	.
.	.	.	4g/
.	.	2.d\	2a/
4E\	.	.	.
2F\	.	.	[2d/
.	.	4e\	.
=114	=114	=114	=114
2.BB-/	1d	2f\	4d/]
.	.	.	4e/
.	.	2.B-\	2f/
4C/	.	.	.
2D\	[1d	.	2.B-/
.	.	4c\	.
2GG/	.	2d\	.
.	.	.	4c/
=115	=115	=115	=115
1G	1d]	2G/	2d/
.	.	1g	2G/
1r	1c	.	1A
.	.	2f#i\	.
=116	=116	=116	=116
0G	0B-	1g	2G/
.	.	.	2.g/
.	.	1r	.
.	.	.	4f/
.	.	.	2g/
=117	=117	=117	=117
0D	0A	0r	4a/
.	.	.	4g/
.	.	.	4f#i/
.	.	.	4e/
.	.	.	1f#i
=118	=118	=118	=118
1.E	1G	0r	0g
.	1r	.	.
2C/	.	.	.
=119	=119	=119	=119
0C	1c	0g	1r
.	[1c	.	[1e
=120	=120	=120	=120
0r	2c\]	1g	2e/]
.	4B-\	.	4d/
.	4A/	.	4c/
.	2B-\	[1g	2d/
.	[2c\	.	2e/
=121	=121	=121	=121
0r	2c\]	1g]	1d
.	2Bni\	.	.
.	2.c\	[1g	4c/
.	.	.	4d/
.	.	.	4e/
.	4d\	.	4f/
=122	=122	=122	=122
0r	1e	1g]	1g
.	[1d	[1f	1a
=123	=123	=123	=123
0r	1d]	1f]	2a/
.	.	.	1b-
.	1d	1f	.
.	.	.	2a/
=124	=124	=124	=124
0r	1c	0g	0cc
.	1c	.	.
=125	=125	=125	=125
0G	1B-	0d	1r
.	2B-\	.	[1b-
.	[2d\	.	.
=126	=126	=126	=126
1G	4d\]	1B-	2b-\]
.	4c\	.	.
.	2B-\	.	2g/
[1F	2A/	1c	[1a
.	[2c\	.	.
=127	=127	=127	=127
1F]	4c\]	2.A/	1a]
.	4B-\	.	.
.	4A/	.	.
.	4G/	4B-\	.
1F	1A	1c	1a
=128	=128	=128	=128
0G	1G	1B-	1d
.	1B-	1G	[1g
=129	=129	=129	=129
0D	1r	0A	2g/]
.	.	.	4f#i/
.	.	.	4e/
.	1A	.	1f#i
=130	=130	=130	=130
2.GG/	1B-	0G	1g
4AA/	.	.	.
2BB-/	2B-\	.	1r
[2C/	[2G/	.	.
=131	=131	=131	=131
4C/]	4G/]	1r	0g
4D\	4F/	.	.
1E	2G/	.	.
.	1C	1G	.
4D\	.	.	.
4C/	.	.	.
=132	=132	=132	=132
1E	1G	2c\	1g
.	.	4B-\	.
.	.	4c\	.
2.D\	1A	[1d	[1f
4C/	.	.	.
=133	=133	=133	=133
1D	0r	2d\]	1f]
.	.	1B-	.
1D	.	.	1f
.	.	2A/	.
=134	=134	=134	=134
0C	[0G	1c	0g
.	.	1c	.
=135	=135	=135	=135
0r	0G]	1d	1g
.	.	1B-	1d
=136	=136	=136	=136
1AA	[0A	1c	1r
[1AA	.	1r	[1c
=137	=137	=137	=137
2AA/]	1A]	1r	2c/]
2BB-/	.	.	2d/
1C	1G	1c	2e/
.	.	.	4d/
.	.	.	4e/
=138	=138	=138	=138
1D	1F	1A	1f
1GG	1G	1B-	[1d
=139	=139	=139	=139
0AA	0E	0G	2d/]
.	.	.	4c#i/
.	.	.	4Bni/
.	.	.	1c#i
=140	=140	=140	=140
1.BB-	[0Dl	1.F	[0dl
2GG/	.	2G/	.
=141	=141	=141	=141
0GGl	0D]	0Gl	0d]
!!LO:LB:i:g=z
=142||	=142||	=142||	=142||
*>C	*>C	*>C	*>C
*clefF4	*clefGv2	*clefGv2	*clefG2
*k[b-]	*k[b-]	*k[b-]	*k[b-]
*M3/1	*M3/1	*M3/1	*M3/1
*met(O|)	*met(O|)	*met(O|)	*met(O|)
*MM378	*MM378	*MM378	*MM378
!!section: Cum sancto spiritu
!!!OMD: Cum sancto spiritu
0GG	1D	0.r	0.g
.	1D	.	.
1GG	[1G	.	.
=143	=143	=143	=143
0C	2G/]	0G	1.e
.	2F/	.	.
.	1E	.	.
.	.	.	2f/
1BB-	1D	1G	1g
=144	=144	=144	=144
1AA	1.E	0.c	1.a
0AA	.	.	.
.	1F	.	2.cc\
.	.	.	4b-\
.	2E/	.	4a/
.	.	.	4g/
=145	=145	=145	=145
1GG	1G	1B-	2b-\
.	.	.	1g
1r	1.c	0A	.
.	.	.	2f#i/
1r	.	.	2f#i/
.	4B-\	.	4e/
.	4c\	.	4f#i/
=146	=146	=146	=146
0.r	1d	0.G	0g
.	2r	.	.
.	1G	.	.
.	.	.	1r
.	2A/	.	.
=147	=147	=147	=147
1r	1B-	0.r	1d
1r	1c	.	1e
1D	1A	.	1f
=148	=148	=148	=148
1E	1G	0.r	1g
1F	1A	.	2f/
.	.	.	2.d/
1G	1B-	.	.
.	.	.	4c/
.	.	.	2B-/
=149	=149	=149	=149
2F\	2c\	0.r	1A
2.D\	1d	.	.
.	.	.	1B-
4C/	.	.	.
2BB-/	2G/	.	.
1AA	2A/	.	1r
.	[2F/	.	.
=150	=150	=150	=150
1BB-	2F/]	0.r	1d
.	1G	.	.
1C	.	.	1e
.	1A	.	.
1D	.	.	1f
.	[2F/	.	.
=151	=151	=151	=151
1BB-	4F/]	0.r	1.d
.	4E/	.	.
.	2D/	.	.
0AA	2.E/	.	.
.	.	.	2c#i/
.	4F/	.	.
.	1E	.	2c#i/
.	.	.	4Bni/
.	.	.	4c#i/
=152	=152	=152	=152
1A	0.D	0.r	1d
1A	.	.	1r
1A	.	.	1r
=153	=153	=153	=153
0D	0.r	0.r	1d
.	.	.	1d
1GG	.	.	1d
=154	=154	=154	=154
0.GG	0.r	1d	0.G
.	.	1d	.
.	.	1d	.
=155	=155	=155	=155
1r	1d	0.G	1.B-
1r	1d	.	.
.	.	.	2G/
[1GG	1d	.	2.B-/
.	.	.	4c/
=156	=156	=156	=156
2GG/]	2G/	1r	1.d
2.BB-/	2D/	.	.
.	2.F/	1d	.
4C/	.	.	.
2.D\	.	.	2.f/
.	4G/	.	.
.	1A	1d	.
4E\	.	.	4g/
2F\	.	.	2a/
=157	=157	=157	=157
1G	1G	1d	1b-
2A\	2r	0c	2.cc\
1F	2.c\	.	.
.	.	.	4b-\
.	.	.	2a/
.	4d\	.	.
2E-\	2e-i\	.	2g/
=158	=158	=158	=158
1G	1.d	1B-	1.g
0D	.	0A	.
.	4c\	.	4f#i/
.	4B-\	.	4e/
.	1A	.	1f#i
=159	=159	=159	=159
*M2/1	*M2/1	*M2/1	*M2/1
*met(C2/3)	*met(C2/3)	*met(C2/3)	*met(C2/3)
*MM252	*MM252	*MM252	*MM252
!!LO:TX:X=-40:Z=12:t=C2/3 mensuration
0GG	0B-	0G	[0g
=160	=160	=160	=160
1C	2G/	1r	0g]
.	2.c\	.	.
1E	.	1g	.
.	4B-\	.	.
.	2c\	.	.
=161	=161	=161	=161
1D	1d	2f\	0r
.	.	1d	.
2.G\	2.B-\	.	.
.	.	2e\	.
4F\	4c\	.	.
=162	=162	=162	=162
2D\	2d\	2.f\	0r
2.F\	2.A/	.	.
.	.	4e\	.
.	.	4d\	.
4E\	4B-\	4c\	.
[2C/	[2c\	[2e\	.
=163	=163	=163	=163
2C/]	4c\]	4e\]	1c
.	4B-\	4d\	.
2E\	1G	1c	.
1D	.	.	1d
.	2F/	2Bni\	.
=164	=164	=164	=164
1C	2G/	2.c\	1e
.	2c\	.	.
.	.	8d\L	.
.	.	8e\J	.
1r	2B-\	4f\	2d/
.	.	4e\	.
.	[2d\	4d\	[2f/
.	.	4c\	.
=165	=165	=165	=165
2.BB-/	4d\]	1d	4f/]
.	4c\	.	4e/
.	4B-\	.	4d/
4AA/	4A/	.	4c/
1C	2G/	1c	1e
.	[2c\	.	.
=166	=166	=166	=166
1GG	2c\]	0r	0d
.	2Bni\	.	.
1GG	2Bni\	.	.
.	2A/	.	.
=167	=167	=167	=167
2.AA/	2.c\	1e	2.c/
4BB-/	4B-\	.	4d/
2C/	[1G	2c\	2e/
2GG/	.	[2g\	[2d/
=168	=168	=168	=168
2BB-/	2G/]	4g\]	2d/]
.	.	4f\	.
2C/	2A/	4e\	2c/
.	.	4c\	.
1GG	2G/	2.d\	2B-/
.	4F/	.	4A/
.	4E/	4e\	4G/
=169	=169	=169	=169
[0D	[0F	0d	0A
=170	=170	=170	=170
0D]	0F]	1r	1r
.	.	[1d	1a
=171	=171	=171	=171
1G	1r	2d\]	1b-
.	.	2e\	.
1F	1A	1f	1cc
=172	=172	=172	=172
2G\	2B-\	2d\	2b-\
2F\	2c\	2.f\	2.a/
1D	1d	.	.
.	.	4e\	4g/
.	.	2d\	2f/
=173	=173	=173	=173
1A	1c	1e	1e
1F	1A	1f	[1a
=174	=174	=174	=174
0G	0B-	0d	2a/]
.	.	.	4g/
.	.	.	4f/
.	.	.	1g
=175	=175	=175	=175
[0D	[0A	1.f	0a
.	.	[2a\	.
=176	=176	=176	=176
0D]	0A]	4a\]	1r
.	.	4g\	.
.	.	4f#i\	.
.	.	4e\	.
.	.	1f#i	1a
=177	=177	=177	=177
1.GG	1.G	2g\	2.b-\
.	.	2G/	.
.	.	.	4cc\
.	.	2B-\	2b-\
2AA/	4F/	2c\	4a/
.	4E/	.	4g/
=178	=178	=178	=178
1BB-	1D	1d	1f
2GG/	1r	2e\	2g/
[2FF/	.	[2f\	[2a/
=179	=179	=179	=179
2FF/]	1r	4f\]	4a/]
.	.	4e\	4g/
2GG/	.	1d	2f/
1AA	2r	.	1e
.	2A/	2c#i\	.
=180	=180	=180	=180
2BB-/	2F/	1d	2r
2GG/	2G/	.	2.d/
1D	1A	1r	.
.	.	.	4e/
.	.	.	2f/
=181	=181	=181	=181
2.E\	1G	1r	2.g/
4F\	.	.	4a/
2G\	2r	2d\	2b-\
[2A\	[2F/	[2c\	[2cc\
=182	=182	=182	=182
4A\]	4F/]	1c]	4cc\]
4G\	4G/	.	4b-\
4F\	2A/	.	4a/
4E\	.	.	4g/
2G\	2G/	2B-\	2b-\
2D\	[2d\	[2f\	[2a/
=183	=183	=183	=183
2F\	4d\]	4f\]	4a/]
.	4c\	4e\	4g/
2G\	2B-\	2.d\	1g
1D	1A	.	.
.	.	4c\	.
.	.	2A/	2f#i/
=184	=184	=184	=184
[0GGl	[0Gl	2B-\	[0gl
.	.	2G/	.
.	.	2.B-\	.
.	.	4c\	.
=185	=185	=185	=185
0GG]	0G]	0dl	0g]
==	==	==	==
*-	*-	*-	*-
!!!RDF**kern: l=long note in original notation
!!!RDF**kern: i=editorial accidental
!!!ENC:	Complete Works (Melin)
!!!END:	2014/06/10/
!!!EED:	Jesse Rodin
!!!EEV:	2014/06/12/
!!!ONB:	Translated from MusicXML and edited on 2014/06/12/ by Craig Sapp
!!muse2ps: T^@{OPR}^u^@{ONM}{. }@{OTL}^C^@{COM}^i2I150v105,85,85,150c140
